_includes/icons/color-xml-file.svg

<svg fill="#666" height="50" viewBox="0 0 48 48" width="50" xmlns="http://www.w3.org/2000/svg"><path d="m40 45h-32v-42h22l10 10z" fill="#4db6ac"/><path d="m38.5 14h-9.5v-9.5z" fill="#e0f2f1"/><g fill="#00695c"><path d="m14.892 26.465 1.34-3.418h2.304l-2.338 4.936 2.392 5.017h-2.331l-1.367-3.479-1.36 3.479h-2.331l2.393-5.018-2.345-4.936h2.304z"/><path d="m22.934 23.047 1.88 7.198 1.873-7.198h2.625v9.953h-2.017v-2.693l.185-4.149-1.989 6.842h-1.367l-1.989-6.843.185 4.149v2.694h-2.01v-9.953z"/><path d="m33.635 31.332h3.527v1.668h-5.537v-9.953h2.01z"/></g></svg>

<svg xmlns="http://www.w3.org/2000/svg" viewBox="0 0 48 48" width="50" height="50" fill="#666"><path fill="#4db6ac" d="M40 45L8 45 8 3 30 3 40 13z"/><path fill="#e0f2f1" d="M38.5 14L29 14 29 4.5z"/><g fill="#00695c"><path d="M14.892,26.465l1.34-3.418h2.304l-2.338,4.936L18.59,33h-2.331l-1.367-3.479L13.532,33h-2.331 l2.393-5.018l-2.345-4.936h2.304L14.892,26.465z"/><path d="M22.934,23.047l1.88,7.198l1.873-7.198h2.625V33h-2.017v-2.693l0.185-4.149L25.491,33h-1.367 l-1.989-6.843l0.185,4.149V33h-2.01v-9.953H22.934z"/><path d="M33.635,31.332h3.527V33h-5.537v-9.953h2.01V31.332z"/></g></svg>
